X:812
T:Reavy's
R:reel
C:Ed Reavy (1898-1988)
H:see also Connie O'Connell's #806
Z:id:hn-reel-812
M:C|
L:1/8
K:G
~G3B dBcA|~=F3A dBcB|Add^c dfeg|fdcA AdcA|
GBd^c d=ccA|~=F3A dBcB|Add^c dfeg|fdcA BGBd||
fggf fedg|fgag fdef|fgag fdeg|fdcA BGBd|
fggf fedg|fgag fdef|fggf g2ag|fddc dccA||
P:variations
GBd^c d=ccA|=F3A dBcB|Add^c dfeg|fdcA BdcA|
GBd^c d=ccA|=F3A dBcB|Add^c dfeg|fdcA BGBd||
f~g2f fede|fgag fdef|fgag fdeg|fdcA BGBd|
f~g2f fede|fgag fdef|f~g2f ~g2ag|fdcA dccA||

